ui/public/images/oauth2/yandex.svg

<svg width="44" height="44" viewBox="0 0 44 44" fill="none" xmlns="http://www.w3.org/2000/svg">
<rect width="44" height="44" rx="22" fill="#FC3F1D"/>
<path d="M25.2438 12.3208H23.0173C19.2005 12.3208 17.292 14.2292 17.292 17.0919C17.292 20.2726 18.5643 21.863 21.427 23.7714L23.6535 25.3618L17.292 35.222H12.2029L18.2463 26.316C14.7475 23.7714 12.839 21.5449 12.839 17.41C12.839 12.3208 16.3378 8.82202 23.0173 8.82202H29.6969V35.222H25.2438V12.3208Z" fill="white"/>
</svg>

<svg xmlns="http://www.w3.org/2000/svg" width="44" height="44" fill="none"><rect width="44" height="44" fill="#fc3f1d" rx="22"/><path fill="#fff" d="M25.2 12.3H23c-3.8 0-5.7 2-5.7 4.8 0 3.2 1.3 4.8 4.1 6.7l2.3 1.6-6.4 9.8h-5.1l6-8.9c-3.5-2.5-5.4-4.8-5.4-8.9 0-5 3.5-8.6 10.2-8.6h6.7v26.4h-4.5z"/></svg>
